assets/images/icons/ico-slide-4.svg

<svg width="31" height="31" viewBox="0 0 31 31" fill="none" xmlns="http://www.w3.org/2000/svg">
<circle cx="15.5" cy="15.5" r="5.75" stroke="#0000FF" stroke-width="1.5"/>
<path d="M26.8895 12.2851L27.0399 12.8383H27.6132H29.9342V18.1377L27.6133 18.1374L27.0399 18.1373L26.8895 18.6907C26.6226 19.6725 26.2351 20.6062 25.7453 21.4724L25.466 21.9664L25.8654 22.3695L27.5172 24.0364L23.8105 27.7781L22.1685 26.1216L21.7619 25.7114L21.2615 25.9997C20.4019 26.4949 19.4802 26.8849 18.5083 27.1546L17.9588 27.3071V27.8773V30.2264H12.7235V27.8762V27.3057L12.1738 27.1534C11.2036 26.8846 10.2793 26.4947 9.42502 26.0004L8.92413 25.7106L8.51673 26.1216L6.87465 27.7782L3.16702 24.0364L4.81877 22.3695L5.21783 21.9667L4.9392 21.473C4.44982 20.6057 4.06073 19.6719 3.79481 18.6911L3.64468 18.1374H3.07095H0.75V12.8383H3.07059H3.6444L3.79448 12.2844C4.05991 11.3049 4.44925 10.3725 4.93896 9.50394L5.21723 9.01043L4.81858 8.60785L3.16649 6.93947L6.8742 3.19758L8.51628 4.85474L8.92355 5.26576L9.42446 4.97611C10.2793 4.48182 11.2037 4.0909 12.1734 3.82224L12.7232 3.66992V3.09947V0.75H17.9588V3.09947V3.67024L18.509 3.82235C19.4798 4.09076 20.4015 4.48193 21.2619 4.97693L21.7623 5.26483L22.1686 4.85474L23.8106 3.19764L27.5174 6.93941L25.8652 8.60785L25.4661 9.01087L25.7452 9.50463C26.2352 10.3715 26.6227 11.3038 26.8895 12.2851Z" stroke="#DF0112" stroke-width="1.5"/>
<line x1="15.75" y1="6" x2="15.75" y2="15" stroke="#0000FF" stroke-width="1.5"/>
</svg>

<svg width="31" height="31" fill="none" xmlns="http://www.w3.org/2000/svg"><circle cx="15.5" cy="15.5" r="5.75" stroke="#00F" stroke-width="1.5"/><path d="M26.89 12.285l.15.553h2.894v5.3H27.04l-.15.553a12.104 12.104 0 01-1.145 2.781l-.279.494.4.403 1.651 1.667-3.706 3.742-1.642-1.656-.407-.41-.5.288a11.9 11.9 0 01-2.754 1.155l-.55.152v2.92h-5.234v-2.922l-.55-.153A11.763 11.763 0 019.425 26l-.5-.29-.408.412-1.642 1.656-3.708-3.742 1.652-1.667.399-.402-.279-.494a12.12 12.12 0 01-1.144-2.782l-.15-.554H.75v-5.299h2.894l.15-.554a12.12 12.12 0 011.145-2.78l.278-.494-.398-.402-1.653-1.669 3.708-3.741 1.642 1.657.408.41.5-.289a11.78 11.78 0 012.75-1.154l.55-.152V.75h5.235v2.92l.55.152c.97.269 1.892.66 2.753 1.155l.5.288.407-.41 1.642-1.657 3.706 3.741-1.652 1.669-.399.403.28.494c.49.866.877 1.799 1.144 2.78z" stroke="#DF0112" stroke-width="1.5"/><path stroke="#00F" stroke-width="1.5" d="M15.75 6v9"/></svg>
